X: 21067
T: Jura Music Festival, The
R: reel
M: 4/4
K: Amajor
eaga eaga|f2 fe fgaf|e2 ef ecBA|B2 Bc BAFA|
eaga eaga|f2 fe fgaf|e2 ef ecBA|BAFG A4:|
EA A/A/A cAEA|EB B/B/B dBGB|EA A/A/A cAEA|cded c2 A2|
EA A/A/A cAEA|EB B/B/B dBGB|effe fgaf|ecBc A4||
Ac c/c/c Acec|Ad d/d/d Adfd|eg g/g/g abag|fecB AF E2|
eac'e ac' e2|ebd'e bd' e2|f3 e fgaf|ecBc A4||

